X: 7807
T: Come Up To The Room, I Want Ye
R: reel
M: 4/4
K: Gmajor
d2BG DGBd|egdg eage|d2BG DGBd|e/g/edc BGBc|
d2BG DGBd|egdg eage|d2BG DGBd|e/g/edc BGBd||
g2bg dgbg|g/a/gbg eaaf|g2bg efge|dega bggf|
g2bg dgbg|g/a/gbg agab|g/a/g f/g/f e/f/e dB|dega bage||

